static/img/common/ico-clue-rs485.svg

<svg width="18" height="21" viewBox="0 0 18 21" fill="none" xmlns="http://www.w3.org/2000/svg">
<path d="M13.58 18.64C13.36 18.64 13.14 18.58 12.95 18.44L2.83001 11.4C2.53001 11.19 2.35001 10.85 2.35001 10.49C2.35001 10.13 2.53001 9.79 2.83001 9.58L12.95 2.54C13.45 2.19 14.15 2.32 14.5 2.82C14.85 3.32 14.73 4.02 14.22 4.37L5.41001 10.49L14.22 16.61C14.72 16.96 14.85 17.65 14.5 18.16C14.28 18.47 13.94 18.64 13.59 18.64H13.58Z" fill="black"/>
<path d="M13.58 6.42C15.2148 6.42 16.54 5.09476 16.54 3.46C16.54 1.82524 15.2148 0.5 13.58 0.5C11.9452 0.5 10.62 1.82524 10.62 3.46C10.62 5.09476 11.9452 6.42 13.58 6.42Z" fill="white" stroke="currentColor" stroke-linecap="round" stroke-linejoin="round"/>
<path d="M13.58 20.4899C15.2148 20.4899 16.54 19.1647 16.54 17.5299C16.54 15.8952 15.2148 14.5699 13.58 14.5699C11.9452 14.5699 10.62 15.8952 10.62 17.5299C10.62 19.1647 11.9452 20.4899 13.58 20.4899Z" fill="white" stroke="currentColor" stroke-linecap="round" stroke-linejoin="round"/>
<path d="M3.46 13.45C5.09476 13.45 6.42 12.1248 6.42 10.49C6.42 8.85527 5.09476 7.53003 3.46 7.53003C1.82524 7.53003 0.5 8.85527 0.5 10.49C0.5 12.1248 1.82524 13.45 3.46 13.45Z" fill="white" stroke="currentColor" stroke-linecap="round" stroke-linejoin="round"/>
</svg>

<svg xmlns="http://www.w3.org/2000/svg" width="18" height="21" fill="none" viewBox="0 0 18 21"><path fill="#000" d="M13.58 18.64c-.22 0-.44-.06-.63-.2L2.83 11.4c-.3-.21-.48-.55-.48-.91s.18-.7.48-.91l10.12-7.04c.5-.35 1.2-.22 1.55.28s.23 1.2-.28 1.55l-8.81 6.12 8.81 6.12a1.116 1.116 0 0 1-.63 2.03z"/><path fill="#fff" stroke="currentColor" stroke-linecap="round" stroke-linejoin="round" d="M13.58 6.42a2.96 2.96 0 1 0 0-5.92 2.96 2.96 0 0 0 0 5.92M13.58 20.49a2.96 2.96 0 1 0 0-5.92 2.96 2.96 0 0 0 0 5.92M3.46 13.45a2.96 2.96 0 1 0 0-5.92 2.96 2.96 0 0 0 0 5.92"/></svg>
